icons/arrow-box-in-right.svg

<svg xmlns="http://www.w3.org/2000/svg" width="24" height="24" viewBox="0 0 24 24">
  <path d="M19,2 C20.5976809,2 21.9036609,3.24891996 21.9949073,4.82372721 L22,5 L22,19 C22,20.5976809 20.75108,21.9036609 19.1762728,21.9949073 L19,22 L5,22 C3.40231912,22 2.09633912,20.75108 2.00509269,19.1762728 L2,19 L2,16.1428571 C2,15.5905724 2.44771525,15.1428571 3,15.1428571 C3.51283584,15.1428571 3.93550716,15.5288973 3.99327227,16.026236 L4,16.1428571 L4,19 C4,19.5128358 4.38604019,19.9355072 4.88337887,19.9932723 L5,20 L19,20 C19.5128358,20 19.9355072,19.6139598 19.9932723,19.1166211 L20,19 L20,5 C20,4.48716416 19.6139598,4.06449284 19.1166211,4.00672773 L19,4 L5,4 C4.48716416,4 4.06449284,4.38604019 4.00672773,4.88337887 L4,5 L4,7.85714286 C4,8.40942761 3.55228475,8.85714286 3,8.85714286 C2.48716416,8.85714286 2.06449284,8.47110267 2.00672773,7.97376398 L2,7.85714286 L2,5 C2,3.40231912 3.24891996,2.09633912 4.82372721,2.00509269 L5,2 L19,2 Z M10.0502525,7.05025253 C10.4407768,6.65972824 11.0739418,6.65972824 11.4644661,7.05025253 L11.4644661,7.05025253 L15.7071068,11.2928932 C15.7355731,11.3213595 15.7623312,11.3515341 15.787214,11.3832499 C15.7927155,11.3901576 15.7982466,11.397397 15.8036654,11.4046934 C15.8215099,11.4288693 15.8382813,11.453725 15.8539326,11.4793398 C15.8613931,11.4913869 15.8685012,11.5036056 15.8753288,11.5159379 C15.8862061,11.5357061 15.8966234,11.5561086 15.9063462,11.5769009 C15.914321,11.5939015 15.9218036,11.6112044 15.9287745,11.628664 C15.9366843,11.6484208 15.9438775,11.6682023 15.9504533,11.6882636 C15.9552713,11.7031487 15.9599023,11.7185367 15.9641549,11.734007 C15.9701664,11.7555635 15.9753602,11.7772539 15.9798348,11.7992059 C15.9832978,11.8166247 15.9863719,11.834051 15.9889822,11.8515331 C15.9962388,11.8996379 16,11.9493797 16,12 L15.9962979,11.9137692 C15.9978436,11.9317345 15.9989053,11.9497336 15.9994829,11.9677454 L16,12 C16,12.0112225 15.9998151,12.0224019 15.9994483,12.0335352 C15.9988772,12.050591 15.997855,12.0679231 15.996384,12.0852242 C15.994564,12.1070574 15.9920941,12.1281144 15.9889807,12.1489612 C15.9863719,12.165949 15.9832978,12.1833753 15.9797599,12.2007258 C15.9753602,12.2227461 15.9701664,12.2444365 15.964279,12.2658396 C15.9599023,12.2814633 15.9552713,12.2968513 15.9502619,12.3121425 C15.9438775,12.3317977 15.9366843,12.3515792 15.928896,12.3710585 C15.9218036,12.3887956 15.914321,12.4060985 15.9063266,12.4232215 C15.8966234,12.4438914 15.8862061,12.4642939 15.8751242,12.484277 C15.8685012,12.4963944 15.8613931,12.5086131 15.8540045,12.5207088 C15.8382813,12.546275 15.8215099,12.5711307 15.8036865,12.5951593 C15.774687,12.6343256 15.7425008,12.6717127 15.7071068,12.7071068 L15.787214,12.6167501 C15.7849289,12.6196628 15.7826279,12.6225624 15.7803112,12.625449 L15.7071068,12.7071068 L11.4644661,16.9497475 L11.3702588,17.0329361 C10.9779675,17.337961 10.4107365,17.3102314 10.0502525,16.9497475 C9.65972824,16.5592232 9.65972824,15.9260582 10.0502525,15.5355339 L10.0502525,15.5355339 L12.584,13 L3,13 L2.88337887,12.9932723 C2.38604019,12.9355072 2,12.5128358 2,12 C2,11.4477153 2.44771525,11 3,11 L3,11 L12.586,11 L10.0502525,8.46446609 L9.96706393,8.37025876 C9.66203903,7.97796755 9.68976857,7.41073649 10.0502525,7.05025253 Z"/>
</svg>

<svg xmlns="http://www.w3.org/2000/svg" viewBox="0 0 24 24">
  <path d="M19 2a3 3 0 0 1 3 2.82V19a3 3 0 0 1-2.82 3H5a3 3 0 0 1-3-2.82v-3.04a1 1 0 0 1 2-.11V19a1 1 0 0 0 .88 1H19a1 1 0 0 0 1-.88V5a1 1 0 0 0-.88-1H5a1 1 0 0 0-1 .88v2.98a1 1 0 0 1-2 .11V5a3 3 0 0 1 2.82-3H19zm-8.95 5.05a1 1 0 0 1 1.41 0l4.25 4.24A1 1 0 0 1 16 12v-.09a1 1 0 0 1 0 .06V12a1.02 1.02 0 0 1-.2.6 1 1 0 0 1-.1.1l.09-.08h-.01l-.07.09-4.25 4.24-.09.08a1 1 0 0 1-1.32-1.5L12.58 13h-9.7A1 1 0 0 1 3 11h9.59l-2.54-2.54-.08-.09a1 1 0 0 1 .08-1.32z"/>
</svg>
